images/6604439.svg

<?xml version="1.0" encoding="UTF-8"?>
<svg xmlns="http://www.w3.org/2000/svg" xmlns:xlink="http://www.w3.org/1999/xlink" width="300pt" height="300pt" viewBox="0 0 300 300" version="1.1">
<defs>
<g>
<symbol overflow="visible" id="glyph0-0">
<path style="stroke:none;" d="M 0.640625 2.296875 L 0.640625 -9.171875 L 7.140625 -9.171875 L 7.140625 2.296875 Z M 1.375 1.578125 L 6.421875 1.578125 L 6.421875 -8.4375 L 1.375 -8.4375 Z M 1.375 1.578125 "/>
</symbol>
<symbol overflow="visible" id="glyph0-1">
<path style="stroke:none;" d="M 5.125 -8.609375 C 4.1875 -8.609375 3.441406 -8.257812 2.890625 -7.5625 C 2.347656 -6.875 2.078125 -5.929688 2.078125 -4.734375 C 2.078125 -3.535156 2.347656 -2.585938 2.890625 -1.890625 C 3.441406 -1.203125 4.1875 -0.859375 5.125 -0.859375 C 6.050781 -0.859375 6.785156 -1.203125 7.328125 -1.890625 C 7.878906 -2.585938 8.15625 -3.535156 8.15625 -4.734375 C 8.15625 -5.929688 7.878906 -6.875 7.328125 -7.5625 C 6.785156 -8.257812 6.050781 -8.609375 5.125 -8.609375 Z M 5.125 -9.65625 C 6.445312 -9.65625 7.503906 -9.207031 8.296875 -8.3125 C 9.097656 -7.414062 9.5 -6.222656 9.5 -4.734375 C 9.5 -3.234375 9.097656 -2.035156 8.296875 -1.140625 C 7.503906 -0.253906 6.445312 0.1875 5.125 0.1875 C 3.789062 0.1875 2.722656 -0.253906 1.921875 -1.140625 C 1.128906 -2.035156 0.734375 -3.234375 0.734375 -4.734375 C 0.734375 -6.222656 1.128906 -7.414062 1.921875 -8.3125 C 2.722656 -9.207031 3.789062 -9.65625 5.125 -9.65625 Z M 5.125 -9.65625 "/>
</symbol>
<symbol overflow="visible" id="glyph0-2">
<path style="stroke:none;" d="M 1.28125 -9.484375 L 2.5625 -9.484375 L 2.5625 -5.59375 L 7.21875 -5.59375 L 7.21875 -9.484375 L 8.5 -9.484375 L 8.5 0 L 7.21875 0 L 7.21875 -4.515625 L 2.5625 -4.515625 L 2.5625 0 L 1.28125 0 Z M 1.28125 -9.484375 "/>
</symbol>
</g>
</defs>
<g id="surface38009">
<rect x="0" y="0" width="300" height="300" style="fill:rgb(100%,100%,100%);fill-opacity:1;stroke:none;"/>
<path style="fill:none;stroke-width:1.2;stroke-linecap:butt;stroke-linejoin:miter;stroke:rgb(0%,0%,0%);stroke-opacity:1;stroke-miterlimit:10;" d="M 47.746094 87.480469 L 68.625 113.964844 "/>
<path style="fill:none;stroke-width:1.2;stroke-linecap:butt;stroke-linejoin:miter;stroke:rgb(0%,0%,0%);stroke-opacity:1;stroke-miterlimit:10;" d="M 68.625 113.964844 L 101.996094 109.128906 "/>
<path style="fill:none;stroke-width:1.2;stroke-linecap:butt;stroke-linejoin:miter;stroke:rgb(0%,0%,0%);stroke-opacity:1;stroke-miterlimit:10;" d="M 101.996094 109.128906 L 97.160156 75.753906 "/>
<path style="fill:none;stroke-width:1.2;stroke-linecap:butt;stroke-linejoin:miter;stroke:rgb(0%,0%,0%);stroke-opacity:1;stroke-miterlimit:10;" d="M 101.996094 109.128906 L 106.835938 142.5 "/>
<path style="fill:none;stroke-width:1.2;stroke-linecap:butt;stroke-linejoin:miter;stroke:rgb(0%,0%,0%);stroke-opacity:1;stroke-miterlimit:10;" d="M 101.996094 109.128906 L 135.371094 104.289062 "/>
<path style="fill:none;stroke-width:1.2;stroke-linecap:butt;stroke-linejoin:miter;stroke:rgb(0%,0%,0%);stroke-opacity:1;stroke-miterlimit:10;" d="M 139.054688 105.761719 L 145.304688 90.097656 "/>
<path style="fill:none;stroke-width:1.2;stroke-linecap:butt;stroke-linejoin:miter;stroke:rgb(100%,0%,0%);stroke-opacity:1;stroke-miterlimit:10;" d="M 145.304688 90.097656 L 151.554688 74.4375 "/>
<path style="fill:none;stroke-width:1.2;stroke-linecap:butt;stroke-linejoin:miter;stroke:rgb(0%,0%,0%);stroke-opacity:1;stroke-miterlimit:10;" d="M 131.6875 102.820312 L 137.933594 87.160156 "/>
<path style="fill:none;stroke-width:1.2;stroke-linecap:butt;stroke-linejoin:miter;stroke:rgb(100%,0%,0%);stroke-opacity:1;stroke-miterlimit:10;" d="M 137.933594 87.160156 L 144.183594 71.496094 "/>
<path style="fill:none;stroke-width:1.2;stroke-linecap:butt;stroke-linejoin:miter;stroke:rgb(0%,0%,0%);stroke-opacity:1;stroke-miterlimit:10;" d="M 135.371094 104.289062 L 145.808594 117.53125 "/>
<path style="fill:none;stroke-width:1.2;stroke-linecap:butt;stroke-linejoin:miter;stroke:rgb(100%,0%,0%);stroke-opacity:1;stroke-miterlimit:10;" d="M 145.808594 117.53125 L 156.25 130.773438 "/>
<path style=" stroke:none;fill-rule:nonzero;fill:rgb(100%,100%,100%);fill-opacity:1;" d="M 142.867188 64.96875 L 153.867188 64.96875 L 153.867188 80.96875 L 142.867188 80.96875 Z M 142.867188 64.96875 "/>
<g style="fill:rgb(100%,0%,0%);fill-opacity:1;">
  <use xlink:href="#glyph0-1" x="142.867188" y="77.344727"/>
</g>
<path style="fill:none;stroke-width:1;stroke-linecap:butt;stroke-linejoin:miter;stroke:rgb(0%,0%,0%);stroke-opacity:1;stroke-miterlimit:10;" d="M 189.621094 125.933594 L 189.621094 125.933594 M 186.625 125.84375 L 186.773438 126.875 M 183.625 125.75 L 183.925781 127.816406 M 180.625 125.660156 L 181.074219 128.753906 M 177.628906 125.566406 L 178.226562 129.695312 M 174.628906 125.476562 L 175.378906 130.632812 M 171.632812 125.382812 L 172.527344 131.574219 M 168.632812 125.289062 L 169.679688 132.515625 M 165.632812 125.199219 L 166.832031 133.453125 M 162.636719 125.105469 L 163.980469 134.394531 M 159.636719 125.015625 L 161.132812 135.332031 M 156.636719 124.921875 L 158.285156 136.273438 M 155.394531 124.882812 L 157.101562 136.664062 "/>
<path style=" stroke:none;fill-rule:nonzero;fill:rgb(100%,100%,100%);fill-opacity:1;" d="M 151.25 122.773438 L 162.25 122.773438 L 162.25 138.773438 L 151.25 138.773438 Z M 151.25 122.773438 "/>
<g style="fill:rgb(100%,0%,0%);fill-opacity:1;">
  <use xlink:href="#glyph0-1" x="151.25" y="135.149414"/>
</g>
<path style="fill:none;stroke-width:1.2;stroke-linecap:butt;stroke-linejoin:miter;stroke:rgb(0%,0%,0%);stroke-opacity:1;stroke-miterlimit:10;" d="M 189.621094 125.933594 L 202.121094 94.613281 "/>
<path style="fill:none;stroke-width:1.2;stroke-linecap:butt;stroke-linejoin:miter;stroke:rgb(0%,0%,0%);stroke-opacity:1;stroke-miterlimit:10;" d="M 210.5 152.417969 L 189.621094 125.933594 "/>
<path style="fill:none;stroke-width:1.2;stroke-linecap:butt;stroke-linejoin:miter;stroke:rgb(0%,0%,0%);stroke-opacity:1;stroke-miterlimit:10;" d="M 202.121094 94.613281 L 235.492188 89.777344 "/>
<path style="fill:none;stroke-width:1.2;stroke-linecap:butt;stroke-linejoin:miter;stroke:rgb(0%,0%,0%);stroke-opacity:1;stroke-miterlimit:10;" d="M 235.492188 89.777344 L 256.371094 116.257812 "/>
<path style="fill:none;stroke-width:1;stroke-linecap:butt;stroke-linejoin:miter;stroke:rgb(0%,0%,0%);stroke-opacity:1;stroke-miterlimit:10;" d="M 235.492188 89.777344 L 235.492188 89.777344 M 237.074219 87.226562 L 236.105469 86.839844 M 238.652344 84.675781 L 236.714844 83.902344 M 240.230469 82.125 L 237.324219 80.964844 M 241.808594 79.574219 L 237.9375 78.027344 M 243.390625 77.023438 L 238.546875 75.089844 M 244.96875 74.472656 L 239.15625 72.152344 M 246.546875 71.921875 L 239.769531 69.214844 M 248.125 69.371094 L 240.378906 66.277344 M 249.703125 66.820312 L 240.988281 63.339844 M 251.285156 64.269531 L 241.597656 60.402344 M 252.863281 61.71875 L 242.210938 57.464844 M 253.519531 60.660156 L 242.464844 56.25 "/>
<path style="fill:none;stroke-width:1.2;stroke-linecap:butt;stroke-linejoin:miter;stroke:rgb(0%,0%,0%);stroke-opacity:1;stroke-miterlimit:10;" d="M 256.371094 116.257812 L 243.875 147.582031 "/>
<path style="fill:none;stroke-width:1.2;stroke-linecap:butt;stroke-linejoin:miter;stroke:rgb(0%,0%,0%);stroke-opacity:1;stroke-miterlimit:10;" d="M 247.75 116.449219 L 237.753906 141.507812 "/>
<path style=" stroke:none;fill-rule:nonzero;fill:rgb(0%,0%,0%);fill-opacity:1;" d="M 210.5 152.417969 L 244.726562 153.46875 L 243.019531 141.691406 Z M 210.5 152.417969 "/>
<path style="fill:none;stroke-width:1.2;stroke-linecap:butt;stroke-linejoin:miter;stroke:rgb(0%,0%,0%);stroke-opacity:1;stroke-miterlimit:10;" d="M 264.75 174.066406 L 243.875 147.582031 "/>
<path style="fill:none;stroke-width:1.2;stroke-linecap:butt;stroke-linejoin:miter;stroke:rgb(0%,0%,0%);stroke-opacity:1;stroke-miterlimit:10;" d="M 210.5 152.417969 L 198.003906 183.742188 "/>
<path style="fill:none;stroke-width:1.2;stroke-linecap:butt;stroke-linejoin:miter;stroke:rgb(0%,0%,0%);stroke-opacity:1;stroke-miterlimit:10;" d="M 198.003906 183.742188 L 218.878906 210.222656 "/>
<path style=" stroke:none;fill-rule:nonzero;fill:rgb(0%,0%,0%);fill-opacity:1;" d="M 198.003906 183.742188 L 163.773438 182.6875 L 165.480469 194.46875 Z M 198.003906 183.742188 "/>
<path style="fill:none;stroke-width:1.2;stroke-linecap:butt;stroke-linejoin:miter;stroke:rgb(0%,0%,0%);stroke-opacity:1;stroke-miterlimit:10;" d="M 218.878906 210.222656 L 252.253906 205.386719 "/>
<path style="fill:none;stroke-width:1;stroke-linecap:butt;stroke-linejoin:miter;stroke:rgb(0%,0%,0%);stroke-opacity:1;stroke-miterlimit:10;" d="M 218.878906 210.222656 L 218.878906 210.222656 M 217.300781 212.773438 L 218.269531 213.160156 M 215.722656 215.324219 L 217.65625 216.097656 M 214.140625 217.875 L 217.046875 219.035156 M 212.5625 220.425781 L 216.4375 221.972656 M 210.984375 222.976562 L 215.824219 224.910156 M 209.40625 225.527344 L 215.214844 227.847656 M 207.824219 228.078125 L 214.605469 230.785156 M 206.246094 230.628906 L 213.996094 233.722656 M 204.667969 233.179688 L 213.382812 236.660156 M 203.089844 235.730469 L 212.773438 239.597656 M 201.507812 238.28125 L 212.164062 242.535156 M 200.855469 239.339844 L 211.910156 243.75 "/>
<path style="fill:none;stroke-width:1.2;stroke-linecap:butt;stroke-linejoin:miter;stroke:rgb(0%,0%,0%);stroke-opacity:1;stroke-miterlimit:10;" d="M 252.253906 205.386719 L 264.75 174.066406 "/>
<path style="fill:none;stroke-width:1.2;stroke-linecap:butt;stroke-linejoin:miter;stroke:rgb(0%,0%,0%);stroke-opacity:1;stroke-miterlimit:10;" d="M 246.132812 199.3125 L 256.128906 174.257812 "/>
<path style="fill:none;stroke-width:1.2;stroke-linecap:butt;stroke-linejoin:miter;stroke:rgb(0%,0%,0%);stroke-opacity:1;stroke-miterlimit:10;" d="M 164.628906 188.578125 L 143.75 162.09375 "/>
<path style="fill:none;stroke-width:1;stroke-linecap:butt;stroke-linejoin:miter;stroke:rgb(0%,0%,0%);stroke-opacity:1;stroke-miterlimit:10;" d="M 110.378906 166.933594 L 110.378906 166.933594 M 113.375 167.023438 L 113.226562 165.992188 M 116.375 167.117188 L 116.074219 165.054688 M 119.375 167.210938 L 118.925781 164.113281 M 122.371094 167.300781 L 121.773438 163.175781 M 125.371094 167.394531 L 124.621094 162.234375 M 128.367188 167.484375 L 127.472656 161.292969 M 131.367188 167.578125 L 130.320312 160.355469 M 134.367188 167.671875 L 133.167969 159.414062 M 137.363281 167.761719 L 136.019531 158.476562 M 140.363281 167.855469 L 138.867188 157.535156 M 143.363281 167.945312 L 141.714844 156.59375 M 144.605469 167.984375 L 142.898438 156.207031 "/>
<path style="fill:none;stroke-width:1.2;stroke-linecap:butt;stroke-linejoin:miter;stroke:rgb(0%,0%,0%);stroke-opacity:1;stroke-miterlimit:10;" d="M 110.378906 166.933594 L 89.5 140.449219 "/>
<path style="fill:none;stroke-width:1.2;stroke-linecap:butt;stroke-linejoin:miter;stroke:rgb(100%,0%,0%);stroke-opacity:1;stroke-miterlimit:10;" d="M 97.878906 198.253906 L 104.128906 182.59375 "/>
<path style="fill:none;stroke-width:1.2;stroke-linecap:butt;stroke-linejoin:miter;stroke:rgb(0%,0%,0%);stroke-opacity:1;stroke-miterlimit:10;" d="M 104.128906 182.59375 L 110.378906 166.933594 "/>
<path style="fill:none;stroke-width:1.2;stroke-linecap:butt;stroke-linejoin:miter;stroke:rgb(0%,0%,0%);stroke-opacity:1;stroke-miterlimit:10;" d="M 89.5 140.449219 L 56.125 145.289062 "/>
<path style="fill:none;stroke-width:1.2;stroke-linecap:butt;stroke-linejoin:miter;stroke:rgb(0%,0%,0%);stroke-opacity:1;stroke-miterlimit:10;" d="M 56.125 145.289062 L 43.628906 176.609375 "/>
<path style="fill:none;stroke-width:1;stroke-linecap:butt;stroke-linejoin:miter;stroke:rgb(0%,0%,0%);stroke-opacity:1;stroke-miterlimit:10;" d="M 56.125 145.289062 L 56.125 145.289062 M 54.707031 142.644531 L 53.886719 143.289062 M 53.289062 140 L 51.648438 141.292969 M 51.867188 137.359375 L 49.410156 139.296875 M 50.449219 134.714844 L 47.171875 137.296875 M 49.027344 132.074219 L 44.933594 135.300781 M 47.609375 129.429688 L 42.695312 133.304688 M 46.191406 126.789062 L 40.457031 131.304688 M 44.769531 124.144531 L 38.21875 129.308594 M 43.351562 121.5 L 35.980469 127.3125 M 41.933594 118.859375 L 33.742188 125.3125 M 40.511719 116.214844 L 31.503906 123.316406 M 39.921875 115.121094 L 30.578125 122.488281 "/>
<path style="fill:none;stroke-width:1.2;stroke-linecap:butt;stroke-linejoin:miter;stroke:rgb(0%,0%,0%);stroke-opacity:1;stroke-miterlimit:10;" d="M 43.628906 176.609375 L 64.507812 203.09375 "/>
<path style="fill:none;stroke-width:1.2;stroke-linecap:butt;stroke-linejoin:miter;stroke:rgb(0%,0%,0%);stroke-opacity:1;stroke-miterlimit:10;" d="M 60.820312 201.621094 L 54.574219 217.285156 "/>
<path style="fill:none;stroke-width:1.2;stroke-linecap:butt;stroke-linejoin:miter;stroke:rgb(100%,0%,0%);stroke-opacity:1;stroke-miterlimit:10;" d="M 54.574219 217.285156 L 48.324219 232.945312 "/>
<path style="fill:none;stroke-width:1.2;stroke-linecap:butt;stroke-linejoin:miter;stroke:rgb(0%,0%,0%);stroke-opacity:1;stroke-miterlimit:10;" d="M 68.191406 204.5625 L 61.941406 220.222656 "/>
<path style="fill:none;stroke-width:1.2;stroke-linecap:butt;stroke-linejoin:miter;stroke:rgb(100%,0%,0%);stroke-opacity:1;stroke-miterlimit:10;" d="M 61.941406 220.222656 L 55.695312 235.886719 "/>
<path style="fill:none;stroke-width:1.2;stroke-linecap:butt;stroke-linejoin:miter;stroke:rgb(0%,0%,0%);stroke-opacity:1;stroke-miterlimit:10;" d="M 64.507812 203.09375 L 81.195312 200.675781 "/>
<path style="fill:none;stroke-width:1.2;stroke-linecap:butt;stroke-linejoin:miter;stroke:rgb(100%,0%,0%);stroke-opacity:1;stroke-miterlimit:10;" d="M 81.195312 200.675781 L 97.878906 198.253906 "/>
<path style=" stroke:none;fill-rule:nonzero;fill:rgb(100%,100%,100%);fill-opacity:1;" d="M 41.007812 226.414062 L 52.007812 226.414062 L 52.007812 242.414062 L 41.007812 242.414062 Z M 41.007812 226.414062 "/>
<g style="fill:rgb(100%,0%,0%);fill-opacity:1;">
  <use xlink:href="#glyph0-1" x="41.007812" y="238.790039"/>
</g>
<path style=" stroke:none;fill-rule:nonzero;fill:rgb(100%,100%,100%);fill-opacity:1;" d="M 92.878906 190.253906 L 103.878906 190.253906 L 103.878906 206.253906 L 92.878906 206.253906 Z M 92.878906 190.253906 "/>
<g style="fill:rgb(100%,0%,0%);fill-opacity:1;">
  <use xlink:href="#glyph0-1" x="92.878906" y="202.629883"/>
</g>
<path style=" stroke:none;fill-rule:nonzero;fill:rgb(100%,100%,100%);fill-opacity:1;" d="M 14.25 110.804688 L 35.25 110.804688 L 35.25 126.804688 L 14.25 126.804688 Z M 14.25 110.804688 "/>
<g style="fill:rgb(100%,0%,0%);fill-opacity:1;">
  <use xlink:href="#glyph0-2" x="14.25" y="123.180664"/>
  <use xlink:href="#glyph0-1" x="24.272461" y="123.180664"/>
</g>
</g>
</svg>

<svg xmlns="http://www.w3.org/2000/svg" xmlns:xlink="http://www.w3.org/1999/xlink" width="300pt" height="300pt" viewBox="0 0 300 300"><defs><symbol overflow="visible"><path d="M.64 2.297v-11.47h6.5v11.47zm.735-.72h5.047V-8.436H1.375zm0 0"/></symbol><symbol overflow="visible" id="a"><path d="M5.125-8.61c-.938 0-1.684.352-2.234 1.047-.542.688-.812 1.633-.812 2.83 0 1.198.27 2.147.813 2.842.55.687 1.297 1.03 2.235 1.03.926 0 1.66-.343 2.203-1.03.55-.696.828-1.645.828-2.844 0-1.196-.277-2.14-.828-2.829-.543-.695-1.277-1.046-2.203-1.046zm0-1.046c1.32 0 2.38.45 3.172 1.344.8.898 1.203 2.09 1.203 3.578 0 1.5-.402 2.7-1.203 3.593C7.504-.255 6.445.186 5.125.186c-1.336 0-2.402-.44-3.203-1.328C1.13-2.036.734-3.235.734-4.735c0-1.49.395-2.68 1.188-3.579.8-.894 1.867-1.343 3.203-1.343zm0 0"/></symbol><symbol overflow="visible" id="b"><path d="M1.28-9.484h1.282v3.89H7.22v-3.89H8.5V0H7.22v-4.516H2.562V0H1.28zm0 0"/></symbol></defs><g><path fill="#fff" d="M0 0h300v300H0z"/><path d="M47.746 87.48l20.88 26.485M68.625 113.965l33.37-4.836M101.996 109.13L97.16 75.753M101.996 109.13l4.84 33.37M101.996 109.13l33.375-4.84M139.055 105.762l6.25-15.664" stroke-width="1.2" stroke="#000" stroke-miterlimit="10" fill="none"/><path d="M145.305 90.098l6.25-15.66" stroke-width="1.2" stroke="#f00" stroke-miterlimit="10" fill="none"/><path d="M131.688 102.82l6.246-15.66" stroke-width="1.2" stroke="#000" stroke-miterlimit="10" fill="none"/><path d="M137.934 87.16l6.25-15.664" stroke-width="1.2" stroke="#f00" stroke-miterlimit="10" fill="none"/><path d="M135.37 104.29l10.44 13.24" stroke-width="1.2" stroke="#000" stroke-miterlimit="10" fill="none"/><path d="M145.81 117.53l10.44 13.243" stroke-width="1.2" stroke="#f00" stroke-miterlimit="10" fill="none"/><path d="M142.867 64.97h11v16h-11zm0 0" fill="#fff"/><use xlink:href="#a" x="142.867" y="77.345" fill="#f00"/><path d="M189.62 125.934m-2.995-.09l.148 1.03m-3.148-1.124l.3 2.066m-3.3-2.156l.45 3.094m-3.446-3.188l.597 4.13m-3.598-4.22l.75 5.157m-3.747-5.25l.894 6.19m-3.894-6.284l1.047 7.226m-4.047-7.317l1.2 8.253m-4.196-8.348l1.343 9.29m-4.343-9.38l1.496 10.317m-4.496-10.41l1.648 11.35m-2.89-11.39l1.707 11.782" stroke="#000" stroke-miterlimit="10" fill="none"/><path d="M151.25 122.773h11v16h-11zm0 0" fill="#fff"/><use xlink:href="#a" x="151.25" y="135.149" fill="#f00"/><path d="M189.62 125.934l12.5-31.32M210.5 152.418l-20.88-26.484M202.12 94.613l33.372-4.836M235.492 89.777l20.88 26.48" stroke-width="1.2" stroke="#000" stroke-miterlimit="10" fill="none"/><path d="M235.492 89.777m1.582-2.55l-.97-.387m2.548-2.164l-1.937-.774m3.515-1.777l-2.906-1.16m4.485-1.39l-3.873-1.548m5.454-1.004l-4.843-1.933m6.422-.617l-5.814-2.32m7.39-.23l-6.776-2.708m8.355.156l-7.746-3.093m9.323.543l-8.715-3.48m10.297.93l-9.687-3.868m11.265 1.317l-10.652-4.255m11.31 3.195l-11.055-4.41" stroke="#000" stroke-miterlimit="10" fill="none"/><path d="M256.37 116.258l-12.495 31.324M247.75 116.45l-9.996 25.058" stroke-width="1.2" stroke="#000" stroke-miterlimit="10" fill="none"/><path d="M210.5 152.418l34.227 1.05-1.707-11.777zm0 0"/><path d="M264.75 174.066l-20.875-26.484M210.5 152.418l-12.496 31.324M198.004 183.742l20.875 26.48" stroke-width="1.2" stroke="#000" stroke-miterlimit="10" fill="none"/><path d="M198.004 183.742l-34.23-1.054 1.706 11.78zm0 0"/><path d="M218.88 210.223l33.374-4.836" stroke-width="1.2" stroke="#000" stroke-miterlimit="10" fill="none"/><path d="M218.88 210.223m-1.58 2.55l.97.387m-2.547 2.164l1.933.774m-3.515 1.777l2.907 1.16m-4.484 1.39l3.875 1.548m-5.454 1.004l4.84 1.933m-6.418.617l5.81 2.32m-7.392.23l6.78 2.708m-8.358-.156l7.75 3.093m-9.328-.543l8.715 3.48m-10.293-.93l9.683 3.868m-11.265-1.317l10.656 4.255m-11.31-3.195l11.056 4.41" stroke="#000" stroke-miterlimit="10" fill="none"/><path d="M252.254 205.387l12.496-31.32M246.133 199.313l9.996-25.055M164.63 188.578l-20.88-26.484" stroke-width="1.2" stroke="#000" stroke-miterlimit="10" fill="none"/><path d="M110.38 166.934m2.995.09l-.148-1.032m3.148 1.125l-.3-2.062m3.3 2.156l-.45-3.097m3.446 3.188l-.597-4.124m3.598 4.22l-.75-5.162m3.747 5.25l-.894-6.19m3.894 6.284l-1.047-7.223m4.047 7.317l-1.2-8.258m4.196 8.348l-1.343-9.285m4.343 9.378l-1.496-10.32m4.496 10.41l-1.648-11.35m2.89 11.39l-1.707-11.778" stroke="#000" stroke-miterlimit="10" fill="none"/><path d="M110.38 166.934L89.5 140.45" stroke-width="1.2" stroke="#000" stroke-miterlimit="10" fill="none"/><path d="M97.88 198.254l6.25-15.66" stroke-width="1.2" stroke="#f00" stroke-miterlimit="10" fill="none"/><path d="M104.13 182.594l6.25-15.66M89.5 140.45l-33.375 4.84M56.125 145.29L43.63 176.61" stroke-width="1.2" stroke="#000" stroke-miterlimit="10" fill="none"/><path d="M56.125 145.29m-1.418-2.645l-.82.644M53.29 140l-1.642 1.293m.22-3.934l-2.458 1.937m1.04-4.582l-3.278 2.582m1.855-5.223l-4.093 3.227m2.675-5.87l-4.915 3.875m3.496-6.516l-5.733 4.515m4.313-7.16l-6.55 5.164m5.132-7.81l-7.372 5.813m5.954-8.454l-8.192 6.453m6.77-9.098l-9.008 7.1m8.418-8.194l-9.344 7.368" stroke="#000" stroke-miterlimit="10" fill="none"/><path d="M43.63 176.61l20.878 26.484M60.82 201.62l-6.246 15.665" stroke-width="1.2" stroke="#000" stroke-miterlimit="10" fill="none"/><path d="M54.574 217.285l-6.25 15.66" stroke-width="1.2" stroke="#f00" stroke-miterlimit="10" fill="none"/><path d="M68.19 204.563l-6.25 15.66" stroke-width="1.2" stroke="#000" stroke-miterlimit="10" fill="none"/><path d="M61.94 220.223l-6.245 15.664" stroke-width="1.2" stroke="#f00" stroke-miterlimit="10" fill="none"/><path d="M64.508 203.094l16.687-2.418" stroke-width="1.2" stroke="#000" stroke-miterlimit="10" fill="none"/><path d="M81.195 200.676l16.684-2.422" stroke-width="1.2" stroke="#f00" stroke-miterlimit="10" fill="none"/><path d="M41.008 226.414h11v16h-11zm0 0" fill="#fff"/><use xlink:href="#a" x="41.008" y="238.79" fill="#f00"/><path d="M92.88 190.254h11v16h-11zm0 0" fill="#fff"/><use xlink:href="#a" x="92.879" y="202.63" fill="#f00"/><path d="M14.25 110.805h21v16h-21zm0 0" fill="#fff"/><g fill="#f00"><use xlink:href="#b" x="14.25" y="123.181"/><use xlink:href="#a" x="24.272" y="123.181"/></g></g></svg>
